public/assets/logo/symbol.svg

<svg xmlns="http://www.w3.org/2000/svg" viewBox="0 0 1000 1000">
  <path
    d="m922.877 150.628-38.22 17.911a28.158 28.158 0 0 0-14.21 15.281 28.32 28.32 0 0 0 .169 20.908c40.569 102.475 41.87 216.419 3.651 319.802-38.219 103.383-113.244 188.861-210.568 239.908-97.324 51.047-210.035 64.037-316.341 36.458-106.306-27.579-198.656-93.767-259.196-185.768a28.082 28.082 0 0 0-16.99-12.005 27.975 27.975 0 0 0-20.555 3.007l-36.563 21.183a28.124 28.124 0 0 0-8.452 7.53A28.26 28.26 0 0 0 .79 645.108a28.328 28.328 0 0 0 3.688 21.92C149.634 890.11 439.751 977.888 687.1 861.904c262.203-122.866 380.511-429.693 273.773-696.101a28.23 28.23 0 0 0-6.239-9.548 28.08 28.08 0 0 0-9.496-6.281 27.986 27.986 0 0 0-11.197-1.984 28.002 28.002 0 0 0-11.063 2.638z"
    fill="#78C45B"
  />
  <path
    d="M748.147 231.749 531.044 333.433a28.13 28.13 0 0 0-12.456 11.442 28.317 28.317 0 0 0-3.675 16.548 28.28 28.28 0 0 0 6.434 15.674 28.075 28.075 0 0 0 14.218 9.138l221.849 59.684a55.914 55.914 0 0 0 25.489.831 56.05 56.05 0 0 0 23.227-10.576 56.365 56.365 0 0 0 16.177-19.803 56.615 56.615 0 0 0 5.79-24.946V282.887a56.607 56.607 0 0 0-6.918-27.157 56.308 56.308 0 0 0-19.078-20.46 55.946 55.946 0 0 0-53.954-3.521zM606.782 381.44c-14.687 1.297-57.344-6.995-58.608-21.719-1.264-14.724 39.315-30.378 53.946-31.647a26.603 26.603 0 0 1 19.019 6.458 26.833 26.833 0 0 1 9.15 17.948 26.876 26.876 0 0 1-5.899 19.274 26.65 26.65 0 0 1-17.608 9.686z"
    fill="#EB3B98"
  />
  <path
    d="m755.505 477.99-225.107-82.306a27.967 27.967 0 0 0-16.876-.742 28.063 28.063 0 0 0-14.247 9.117 28.31 28.31 0 0 0-2.8 32.242l114.912 199.672a56.328 56.328 0 0 0 17.437 18.694 56.017 56.017 0 0 0 23.87 9.021 55.927 55.927 0 0 0 25.381-2.511 56.13 56.13 0 0 0 21.659-13.527l76.271-76.749a56.462 56.462 0 0 0 14.213-24.105 56.642 56.642 0 0 0 .916-28 56.508 56.508 0 0 0-12.607-24.99 56.155 56.155 0 0 0-23.022-15.816zm-168.493-4.006a26.637 26.637 0 0 1-18.021 9.394 26.594 26.594 0 0 1-19.384-6.065c-11.233-9.506-35.609-45.666-26.145-57.005 9.464-11.339 49.144 6.431 60.433 15.936a26.749 26.749 0 0 1 6.484 8.173 26.883 26.883 0 0 1 1.703 20.426 26.81 26.81 0 0 1-5.042 9.141h-.028z"
    fill="#FACC15"
  />
  <path
    d="M588.528 657.324 487.292 439.263a28.164 28.164 0 0 0-11.432-12.489 27.983 27.983 0 0 0-32.088 2.875 28.223 28.223 0 0 0-9.05 14.324L375.3 666.661a56.637 56.637 0 0 0-.827 25.601 56.52 56.52 0 0 0 10.53 23.33 56.213 56.213 0 0 0 19.715 16.248 55.973 55.973 0 0 0 24.837 5.816h108.06a55.975 55.975 0 0 0 27.049-6.948 56.27 56.27 0 0 0 20.377-19.171 56.58 56.58 0 0 0 8.668-26.657 56.623 56.623 0 0 0-5.181-27.556zM468.392 536.856a26.537 26.537 0 0 1-10.346-1.13 26.632 26.632 0 0 1-9.126-5.024 26.76 26.76 0 0 1-6.515-8.152 26.86 26.86 0 0 1-2.909-10.036c-1.292-14.752 6.964-57.597 21.623-58.866 14.659-1.27 30.245 39.488 31.508 54.184a26.867 26.867 0 0 1-6.136 19.55 26.64 26.64 0 0 1-18.099 9.474z"
    fill="#F04A4E"
  />
  <path
    d="M384.876 401.664 186.083 516.999a56.259 56.259 0 0 0-18.612 17.514 56.56 56.56 0 0 0-8.982 23.975 56.641 56.641 0 0 0 2.501 25.493 56.431 56.431 0 0 0 13.467 21.754l76.411 76.75a56.13 56.13 0 0 0 23.999 14.276 55.936 55.936 0 0 0 27.877.92 56.067 56.067 0 0 0 24.88-12.664 56.425 56.425 0 0 0 15.747-23.123l81.944-226.101a28.32 28.32 0 0 0 .777-16.975 28.221 28.221 0 0 0-9.072-14.343 27.983 27.983 0 0 0-32.144-2.811zm-5.616 87.664a26.646 26.646 0 0 1-18.111 9.477 26.604 26.604 0 0 1-19.477-6.162 26.84 26.84 0 0 1-9.435-18.191 26.88 26.88 0 0 1 6.135-19.563c9.464-11.283 45.465-35.766 56.755-26.26 11.289 9.505-6.347 49.417-15.811 60.756l-.056-.057z"
    fill="#F9A140"
  />
  <g fill="#78C45B">
    <path
      d="M590.241 88.942a16.276 16.276 0 0 0-6.428-5.41 16.202 16.202 0 0 0-8.259-1.473c-24.178 2.088-90.536 14.978-127.043 93.419-32.604 70.262-9.661 125.264 5.616 150.283a28.131 28.131 0 0 0 12.175 11.003 27.962 27.962 0 0 0 16.216 2.31c28.841-4.428 85.539-22.114 118.17-92.375 36.338-78.385 3.51-137.816-10.447-157.757zM114.052 194.405a25.58 25.58 0 0 0-8.182 9.909 25.717 25.717 0 0 0-2.349 12.656c2.275 33.368 17.776 118.466 113.93 163.934 96.153 45.468 171.301 2.821 198.4-16.557a25.65 25.65 0 0 0 8.191-9.908 25.773 25.773 0 0 0 2.368-12.657c-2.303-33.368-17.804-118.466-113.957-163.963-96.154-45.496-171.358-2.961-198.401 16.586z"
    />
  </g>
</svg>

<svg width="100%" height="100%" viewBox="0 0 1000 1000" fill="none" xmlns="http://www.w3.org/2000/svg">
<g id="symbol">
<path id="peel" d="M922.877 150.628L884.657 168.539C878.146 171.616 873.06 177.086 870.447 183.82C867.834 190.553 867.895 198.038 870.616 204.728C911.185 307.203 912.486 421.147 874.267 524.53C836.048 627.913 761.023 713.391 663.699 764.438C566.375 815.485 453.664 828.475 347.358 800.896C241.052 773.317 148.702 707.129 88.1623 615.128C84.2349 609.092 78.1553 604.796 71.1725 603.123C64.1896 601.449 56.8339 602.526 50.6165 606.13L14.0535 627.313C10.7577 629.222 7.88243 631.784 5.60226 634.843C3.3221 637.902 1.68456 641.394 0.789031 645.108C-0.106493 648.822 -0.241326 652.68 0.392716 656.448C1.02676 660.216 2.41645 663.816 4.47745 667.028C149.634 890.11 439.751 977.888 687.099 861.904C949.302 739.038 1067.61 432.211 960.872 165.803C959.462 162.227 957.339 158.977 954.633 156.255C951.927 153.533 948.696 151.396 945.137 149.974C941.578 148.553 937.768 147.878 933.94 147.99C930.111 148.103 926.347 149.001 922.877 150.628Z" fill="#78C45B"/>
<g id="slices">
<path id="slice-pink" d="M748.147 231.749L531.044 333.433C525.822 335.874 521.474 339.868 518.588 344.875C515.703 349.882 514.42 355.659 514.913 361.423C515.407 367.186 517.653 372.658 521.347 377.097C525.041 381.535 530.005 384.725 535.565 386.235L757.414 445.919C765.735 448.156 774.456 448.44 782.903 446.75C791.351 445.06 799.298 441.441 806.13 436.174C812.963 430.906 818.498 424.13 822.307 416.371C826.116 408.612 828.097 400.076 828.097 391.425V282.887C828.103 273.394 825.723 264.054 821.179 255.73C816.635 247.406 810.073 240.369 802.101 235.27C794.129 230.171 785.005 227.175 775.574 226.56C766.142 225.944 756.709 227.729 748.147 231.749ZM606.782 381.44C592.095 382.737 549.438 374.445 548.174 359.721C546.91 344.997 587.489 329.343 602.12 328.074C609.055 327.657 615.878 329.974 621.139 334.532C626.399 339.089 629.682 345.528 630.289 352.48C630.896 359.431 628.78 366.346 624.39 371.754C620 377.162 613.683 380.637 606.782 381.44Z" fill="#EB3B98"/>
<path id="slice-yellow" d="M755.505 477.99L530.398 395.684C524.982 393.703 519.09 393.444 513.522 394.942C507.953 396.44 502.979 399.624 499.275 404.059C495.57 408.495 493.314 413.969 492.813 419.737C492.312 425.505 493.591 431.288 496.475 436.301L611.387 635.973C615.696 643.465 621.662 649.861 628.824 654.667C635.987 659.473 644.154 662.559 652.694 663.688C661.234 664.817 669.919 663.958 678.075 661.177C686.232 658.396 693.643 653.767 699.734 647.65L776.005 570.901C782.685 564.194 787.574 555.904 790.218 546.796C792.863 537.689 793.178 528.058 791.134 518.796C789.091 509.534 784.754 500.939 778.527 493.806C772.299 486.673 764.381 481.234 755.505 477.99ZM587.012 473.984C582.473 479.379 575.996 482.755 568.991 483.378C561.986 484.002 555.02 481.822 549.607 477.313C538.374 467.807 513.998 431.647 523.462 420.308C532.926 408.969 572.606 426.739 583.895 436.244C586.57 438.514 588.773 441.291 590.379 444.417C591.985 447.542 592.962 450.955 593.254 454.46C593.546 457.965 593.148 461.493 592.082 464.843C591.015 468.193 589.302 471.3 587.04 473.984H587.012Z" fill="#FACC15"/>
<path id="slice-red" d="M588.528 657.324L487.292 439.263C484.847 434.02 480.856 429.66 475.86 426.774C470.864 423.888 465.105 422.616 459.365 423.13C453.624 423.645 448.18 425.921 443.772 429.649C439.363 433.378 436.204 438.379 434.722 443.973L375.3 666.661C373.073 675.018 372.79 683.778 374.473 692.262C376.155 700.747 379.758 708.729 385.003 715.592C390.247 722.455 396.993 728.014 404.718 731.84C412.444 735.666 420.941 737.655 429.555 737.656H537.615C547.07 737.663 556.374 735.274 564.664 730.708C572.955 726.142 579.963 719.548 585.041 711.537C590.118 703.526 593.1 694.357 593.709 684.88C594.319 675.403 592.537 665.925 588.528 657.324ZM468.392 536.856C464.903 537.166 461.388 536.782 458.046 535.726C454.705 534.67 451.604 532.962 448.92 530.702C446.236 528.441 444.023 525.671 442.405 522.55C440.788 519.429 439.8 516.019 439.496 512.514C438.204 497.762 446.46 454.917 461.119 453.648C475.778 452.378 491.364 493.136 492.627 507.832C493.243 514.908 491.036 521.94 486.491 527.382C481.947 532.825 475.437 536.232 468.392 536.856Z" fill="#F04A4E"/>
<path id="slice-orange" d="M384.876 401.664L186.083 516.999C178.624 521.326 172.256 527.318 167.471 534.513C162.686 541.707 159.613 549.91 158.489 558.488C157.365 567.066 158.221 575.789 160.99 583.981C163.758 592.174 168.366 599.617 174.457 605.735L250.868 682.485C257.546 689.194 265.8 694.105 274.867 696.761C283.935 699.417 293.523 699.733 302.744 697.681C311.966 695.628 320.523 691.273 327.624 685.017C334.725 678.762 340.141 670.809 343.371 661.894L425.315 435.793C427.305 430.35 427.577 424.422 426.092 418.818C424.608 413.214 421.44 408.206 417.02 404.475C412.6 400.744 407.142 398.473 401.39 397.97C395.638 397.467 389.872 398.757 384.876 401.664ZM379.26 489.328C374.713 494.774 368.199 498.183 361.149 498.805C354.1 499.426 347.094 497.21 341.672 492.643C336.25 488.076 332.856 481.532 332.237 474.452C331.619 467.372 333.825 460.335 338.372 454.889C347.836 443.606 383.837 419.123 395.127 428.629C406.416 438.134 388.78 478.046 379.316 489.385L379.26 489.328Z" fill="#F9A140"/>
</g>
<g id="leaves">
<path id="leaf-right" d="M590.241 88.9416C588.606 86.6046 586.39 84.7392 583.813 83.5315C581.235 82.3239 578.388 81.8163 575.554 82.0593C551.376 84.1466 485.018 97.0368 448.511 175.478C415.907 245.74 438.85 300.742 454.127 325.761C457.007 330.562 461.246 334.393 466.302 336.764C471.359 339.136 477.004 339.94 482.518 339.074C511.359 334.646 568.057 316.96 600.688 246.699C637.026 168.314 604.198 108.883 590.241 88.9416Z" fill="#78C45B"/>
<path id="leaf-left" d="M114.052 194.405C110.529 196.954 107.713 200.365 105.87 204.314C104.027 208.263 103.219 212.619 103.521 216.97C105.796 250.338 121.297 335.436 217.451 380.904C313.604 426.372 388.752 383.725 415.851 364.347C419.375 361.797 422.194 358.387 424.042 354.439C425.889 350.491 426.704 346.135 426.41 341.782C424.107 308.414 408.606 223.316 312.453 177.819C216.299 132.323 141.095 174.858 114.052 194.405Z" fill="#78C45B"/>
</g>
</g>
</svg>
